X:1
T: The Moray Reel
T: 8 x 32J3C (RSCDS Graded)
P: Here's a Health to Ane I Lo'e Dear
C: Traditional, from RSCDS Graded, arr. T. Traub 6-23-2003
R: Jig
M: 6/8
K: D
L: 1/8
|:f/e/|"D"d2 A "G"B>AF|"D"A3-Afe|"D"d2 A "G"Bgf|"A"e3-efe|"D"d2 A "G"B>cd|"A"cBA d2 G|"D"FDF "A"ECE|"D"D3 z2 :|
|: F|"D"AAA BAF|"D"A3-A2 F|"D"AAA "G"Bgf|"A"e3-e2 A|"D"ABA "G"Bcd|"A"cBA "Bm"d2 G|"D"FDF "A"ECE|"D"D3 z2 :|
